artwork/resources/studio/icons/avd/pair-over-wifi.svg

<svg width="16" height="16" viewBox="0 0 16 16" fill="none" xmlns="http://www.w3.org/2000/svg">
<path fill-rule="evenodd" clip-rule="evenodd" d="M9 9H7V11H5V13H7V15H9V13H11V11H9V9Z" fill="#59A869"/>
<path fill-rule="evenodd" clip-rule="evenodd" d="M11.8268 2.7612C13.0401 3.26375 14.1425 4.00035 15.0711 4.92893L13.6569 6.34315C12.2091 4.89543 10.2091 4 8 4C5.79086 4 3.79086 4.89543 2.34315 6.34315L0.928932 4.92893C1.85752 4.00035 2.95991 3.26375 4.17317 2.76121C5.38642 2.25866 6.68678 2 8 2C9.31322 2 10.6136 2.25866 11.8268 2.7612Z" fill="#6E6E6E"/>
<path fill-rule="evenodd" clip-rule="evenodd" d="M10.2961 6.45672C11.024 6.75825 11.6855 7.20021 12.2426 7.75736L10.8284 9.17157C10.1046 8.44772 9.10457 8 8 8C6.89543 8 5.89543 8.44772 5.17157 9.17157L3.75735 7.75736C4.31451 7.20021 4.97594 6.75825 5.70389 6.45672C6.43185 6.15519 7.21206 6 8 6C8.78793 6 9.56814 6.15519 10.2961 6.45672Z" fill="#6E6E6E"/>
</svg>

<svg width="16" height="16" fill="none" xmlns="http://www.w3.org/2000/svg"><path fill-rule="evenodd" clip-rule="evenodd" d="M9 9H7v2H5v2h2v2h2v-2h2v-2H9V9z" fill="#59A869"/><path fill-rule="evenodd" clip-rule="evenodd" d="M11.827 1.761A10 10 0 0115.07 3.93l-1.414 1.414A7.975 7.975 0 008 3c-2.21 0-4.21.895-5.657 2.343L.93 3.93A10 10 0 0111.827 1.76z" fill="#6E6E6E"/><path fill-rule="evenodd" clip-rule="evenodd" d="M10.296 5.457c.728.301 1.39.743 1.947 1.3l-1.415 1.415A3.987 3.987 0 008 7a3.988 3.988 0 00-2.828 1.172L3.757 6.757a6 6 0 016.54-1.3z" fill="#6E6E6E"/></svg>
